X:1
T:Title
%%score { ( 1 3 ) | ( 2 4 ) }
L:1/8
M:4/4
K:C
V:1 treble nm="Grand Piano"
V:3 treble 
V:2 bass 
V:4 bass 
V:1
 z4 z2[Q:1/4=92] [EG]2 | [EG]2 [_E^F][=EG] [_EA]2 [EB][Ec] | [Ec]2 [FG]2 G2 F2 | %3
 E2 DE F2 [B,G][B,F] | [CE]6 [CE]2 | [Ec]2 cc c2 cc | c2 [Gc]4 [Gc]2 | [GB]2 [GB][GB] B2 AA | %8
 d6 z2 | c2[K:bass][K:treble] z2 z4 | G8 |[M:6/4][Q:1/4=240] z2 G,2 G,2 D2 E2 D2 | C6 G6 | %13
 z2 C2 C2 c2 F2 c2 | E12 | z2 A,2 A,2 A2 G2 F2 | E6 c6 | B6 z6 | B12 | %19
 C6[K:bass] [F,B,D]2 [B,E]2 [F,B,D]2 | C6 G6 | F6 c2 F2 c2 | E12 | [C^Fd]6 c2 B2 A2 | G6 c6 | %25
 z6 .d6 | d6 c6 | [C^Fd]6 [Fc]2 [FA]2 F2 | A6 G6 | %29
 A6 B2 e2 d2[Q:1/4=236][Q:1/4=233][Q:1/4=229][Q:1/4=226][Q:1/4=222][Q:1/4=219][Q:1/4=215][Q:1/4=212][Q:1/4=208][Q:1/4=205][Q:1/4=201][Q:1/4=198][Q:1/4=194][Q:1/4=191][Q:1/4=187][Q:1/4=184] | %30
[M:5/4] [Ec]2- [Ec]2- [Ec]6 |] %31
V:2
 z4 z2 [C,C]2 | [C,C]2 [C,C][C,C] [C,C]2 [C,C][C,A,] | [C,G,]2 [D,B,]2 [E,C]2 [F,A,C]2 | %3
 [G,C]2 [F,G,B,][E,G,C] [D,G,B,]2 [G,,D,][G,,G,] | [C,G,]6 [C,G,]2 | %5
 [A,,A,]2 [A,E][A,E] [G,_B,E]2 [G,B,E][G,B,E] | [F,A,F]2 [E,C]4 [_E,C]2 | %7
 [D,D]2 [D,D][D,D][K:treble] [D^F]2 [CDF][CDF] | [B,DG]2 [A,C]2[K:bass] [G,B,]2 [^G,B,E]2 | %9
 [A,E]2 [B,,^G,]C, D,2 D,D, | z2 C2 D4 |[M:6/4] z2 E,2 E,2 z2 [F,G,]2 [F,G,]2 | %12
 z2 E,2 E,2 z2 G,2 G,2 | z2 A,2 A,2 z2 [A,C]2 ^G,2 | z2 [E,G,]2 [E,G,]2 [E,G,]2 [E,G,]2 [E,G,]2 | %15
 z2 F,2 F,2 z2 [F,G,B,]2 [F,G,B,]2 | z2 [E,B,]2 [E,B,]2 z2 [E,A,]2 [E,A,]2 | %17
 z2 [E,^G,]2 [E,G,]2 z2 [^F,A,B,]2 [F,A,B,_E]2 | %18
 [^G,B,E]2 [G,B,]2 [G,B,]2 [=G,B,]2 [G,B,]2 [G,B,]2 | [C,E,]6 G,,2 G,,2 G,,2 | [C,E,]6 [E,_B,C]6 | %21
 [F,A,C]6 [F,A,C]2 [F,A,C]2 [F,,F,^G,C]2 | [C,G,C]2 [C,G,]2 [C,G,]2 .[C,G,]6 | %23
 A,,6 A,2 D2 [D,CD]2 | [G,B,D]2 [F,B,]2 [D,B,]2 [C,G,]4 [C,G,]2 | [B,,^G,]6 [B,,G,]4 [E,G,D]2 | %26
 [A,,A,]2 [A,,A,]2 [A,,A,]2 [A,,A,]4 A,,2 | A,,6 [D,A,]2 [D,C]2 [D,CD]2 | [G,CD]6 [G,B,D]6 | %29
 [G,B,F]6 [G,DF]2 [G,B,F]2 [G,F]2 |[M:5/4][K:bass] [C,G,]2- [C,G,]2- [C,G,]6 |] %31
V:3
 x8 | x8 | x8 | x8 | x8 | x8 | x8 | x8 | z2 ^F2 =F2 d2 | %9
 z[K:bass] A,,[K:treble][EB][A,EA] [B,DG]2 [A,D^F][A,DF] | [B,D]2 E2 F4 |[M:6/4] C6 z6 | %12
 z2 G,2 G,2 z2 B,2 B,2 | F6 z6 | z2 C2 C2 C2 C2 C2 | D6 z6 | z2 D2 D2 z2 C2 C2 | %17
 z2 B,2 B,2 A2 ^G2 A2 | z2 E2 E2 F2 F2 F2 | x6[K:bass] x6 | x12 | x12 | z2 C2 C2 .C6 | z6 .^F6 | %24
 z2 D2 F2 E4 E2 | [Ee]6 E2- [Ec]2 B2 | E2 E2 E2 E4 [A,E]2 | x12 | x12 | x12 |[M:5/4] x10 |] %31
V:4
 x8 | x8 | x8 | x8 | x8 | x8 | x8 | x4[K:treble] x4 | x4[K:bass] x4 | x8 | G,,8 |[M:6/4] C,6 G,,6 | %12
 C,6 E,6 | F,6 F,,6 | C,6 .C,6 | F,,6 G,,6 | ^G,,6 A,,6 | B,,6 B,,6 | E,6 D,6 | x12 | x12 | x12 | %22
 x12 | z6 .D,6 | x12 | x12 | x12 | x12 | x12 | x12 |[M:5/4][K:bass] x10 |] %31

